icons/desktop/20/globe-20.svg

<svg width="20" height="20" viewBox="0 0 20 20" fill="none" xmlns="http://www.w3.org/2000/svg">
<path fill-rule="evenodd" clip-rule="evenodd" d="M10 0C15.5228 0 20 4.47715 20 10C20 15.5228 15.5228 20 10 20C4.47715 20 0 15.5228 0 10C0 4.47715 4.47715 0 10 0ZM14.9629 10.3594C14.8795 13.2045 13.8873 15.8212 12.2686 17.9307C15.4839 17.0127 17.8952 14.1959 18.2119 10.7686C17.2024 10.6097 16.1173 10.4684 14.9629 10.3594ZM5.03418 10.3613C3.99616 10.4594 2.91174 10.5905 1.78711 10.7676C2.10142 14.1735 4.48503 16.9768 7.66992 17.9131C6.07561 15.8028 5.10457 13.1939 5.03418 10.3613ZM10 10.125C9.00025 10.125 7.92468 10.1539 6.78223 10.2236C6.83219 13.2104 8.03785 15.9123 9.9707 17.9102C11.9242 15.9204 13.1485 13.2176 13.2148 10.2256C12.1885 10.1629 11.1157 10.125 10 10.125ZM7.73047 2.06836C4.59028 2.96519 2.21643 5.67411 1.8125 8.99316C2.95402 8.81983 4.05436 8.69247 5.10742 8.59766C5.37335 6.15673 6.31128 3.91747 7.73047 2.06836ZM12.3281 2.08496C13.7257 3.93383 14.643 6.16553 14.8965 8.5957C16.062 8.70078 17.1607 8.83756 18.1865 8.99316C17.7851 5.69481 15.4392 2.99859 12.3281 2.08496ZM10.0264 2.08691C8.36254 3.782 7.2275 5.99617 6.88672 8.46387C7.98861 8.40091 9.02894 8.375 10 8.375C11.08 8.375 12.121 8.41049 13.1201 8.46777C12.7942 6.00153 11.6744 3.78909 10.0264 2.08691Z" fill="black"/>
</svg>

<!-- This Source Code Form is subject to the terms of the Mozilla Public
   - License, v. 2.0. If a copy of the MPL was not distributed with this
   - file, You can obtain one at http://mozilla.org/MPL/2.0/. -->
<svg xmlns="http://www.w3.org/2000/svg" width="20" height="20" fill="context-fill" fill-opacity="context-fill-opacity" viewBox="0 0 20 20">
    <path fill-rule="evenodd" d="M10 0c5.523 0 10 4.477 10 10s-4.477 10-10 10S0 15.523 0 10 4.477 0 10 0m4.963 10.36a13.03 13.03 0 0 1-2.694 7.57 8.25 8.25 0 0 0 5.943-7.161c-1.01-.16-2.095-.3-3.25-.41m-9.929.001c-1.038.098-2.122.23-3.247.407a8.25 8.25 0 0 0 5.883 7.145 13.03 13.03 0 0 1-2.636-7.552M10 10.125c-1 0-2.075.029-3.218.099a11.3 11.3 0 0 0 3.189 7.686 11.3 11.3 0 0 0 3.244-7.684c-1.027-.063-2.1-.101-3.215-.101M7.73 2.068a8.26 8.26 0 0 0-5.917 6.925c1.141-.173 2.241-.3 3.294-.395a13.03 13.03 0 0 1 2.623-6.53m4.598.017a13 13 0 0 1 2.569 6.51c1.165.106 2.264.243 3.29.398a8.25 8.25 0 0 0-5.859-6.908m-2.302.002a11.3 11.3 0 0 0-3.14 6.377A55 55 0 0 1 10 8.375c1.08 0 2.121.035 3.12.093a11.3 11.3 0 0 0-3.094-6.381" clip-rule="evenodd" />
</svg>
